X:1
T:Lord Rendal
M:3/4
L:1/4
K:C
(3D3.99999962500005/11.9999985000002D3.99999962500005/11.9999985000002D3.99999962500005/11.9999985000002D3.99999962500005/11.9999985000002D3.99999962500005/11.9999985000002D3.99999962500005/11.9999985000002|\
 D E G| A2 B| G D E| D2 G| A A A| B- d2| e
M:3/4
| d A G| A2 G| A A G|
M:4/4
 B d2 e|
M:3/4
 d BG/2-B/2| A2 D/2E/2| G G G| A2 B/2A/2| G D E| D2||
